X:1
T:MILLER'S -- REEL.
C:ZEKE BACKUS.
B:Coles
Z:John Walsh <walsh:mat:h.ubc.ca>
R:reel
M:2/4
L:1/16
K:A
vA,2CE D2F"4"A|"SEGUE."E2GB A2cA|BEcE dEcE|BEcB AFEC|\
A,2CE D2F"4"A|E2GB A2ce|{g}fefg agaf|ecBc "4"A2:|
|:((3uefg)|a2(ga) fece|b2(bg) agfe|gebe gbeg|fe^df .e2((3efg)|\
a2(ga) fece|fgag fece|fdge afed|cABG "4"A2:|
